frontend/public/svg/interface/list.svg

<svg width="143" height="107" viewBox="0 0 143 107" fill="none" xmlns="http://www.w3.org/2000/svg">
<g clip-path="url(#clip0)">
<path d="M46.3088 14.6432C47.4831 15.4402 48.8201 15.9723 50.225 16.2018C52.6768 16.5122 55.1451 16.6771 57.6168 16.6955C61.6149 16.7733 65.6127 16.8605 69.6102 16.9572C79.7925 17.1906 90.2966 17.4316 100.676 17.4316C101.439 17.4316 102.202 17.4303 102.964 17.4277C111.146 17.3987 119.453 16.9373 127.488 16.4906C129.976 16.3526 132.463 16.2185 134.949 16.0883C136.039 15.9799 137.108 15.7274 138.13 15.3374C138.708 15.1492 139.302 14.9506 139.977 14.7695C140.077 14.7422 140.168 14.6928 140.245 14.625C140.321 14.5571 140.381 14.4727 140.419 14.3783C140.458 14.2838 140.474 14.1819 140.466 14.0804C140.458 13.979 140.427 13.8806 140.375 13.793C138.654 10.9233 136.508 10.6449 134.784 10.4206C134.535 10.389 134.292 10.356 134.059 10.3174C123.761 8.58861 114.452 7.15384 104.832 7.11323C101.606 7.0997 98.3828 7.06811 95.1546 7.03653C90.238 6.98818 85.154 6.943 80.1521 6.95653C70.9813 6.9907 61.7797 7.12026 52.8004 7.34328C50.7488 7.37906 48.7204 7.77921 46.8118 8.52479C46.257 8.76503 45.78 9.15223 45.4334 9.64352C45.0867 10.1349 44.8839 10.7113 44.8472 11.3094C44.7625 11.944 44.8537 12.5895 45.1111 13.1768C45.3686 13.764 45.7826 14.2709 46.3088 14.6432Z" fill="black"/>
<path d="M142.261 57.7644C142.044 57.1521 141.839 56.574 141.288 56.3464C140.006 55.7998 138.653 55.4401 137.267 55.279C134.444 54.9993 131.621 54.6924 128.799 54.385C121.569 53.5973 114.095 52.7831 106.711 52.4756C92.9341 51.9019 78.9164 51.6487 65.3605 51.405C60.9172 51.3251 56.4748 51.2414 52.0334 51.1537C50.4059 51.0811 48.7792 51.3117 47.2379 51.8337C46.6671 52.1135 46.1609 52.5071 45.751 52.9896C45.3411 53.472 45.0364 54.033 44.8558 54.6375C44.6202 55.4445 44.7047 56.31 45.0921 57.0574C45.4795 57.8048 46.1406 58.3776 46.9403 58.659C48.8392 59.4137 50.8313 59.9143 52.8639 60.1474C60.4466 60.7392 68.1642 61.211 75.627 61.6667L78.14 61.8201C86.3812 62.3248 94.3593 62.5775 102.161 62.5775C112.418 62.5775 122.368 62.1404 132.189 61.2644C132.697 61.2193 133.207 61.1807 133.72 61.142C136.51 60.9319 139.395 60.7147 142.229 59.3694C142.388 59.2939 142.51 59.1596 142.57 58.9954C142.629 58.8311 142.62 58.6503 142.546 58.4923C142.439 58.2546 142.344 58.0116 142.261 57.7644Z" fill="black"/>
<path d="M139.083 94.0158C138.84 93.9436 138.613 93.8624 138.396 93.7857C137.921 93.5898 137.421 93.4621 136.91 93.4067C134.464 93.2468 132.018 93.0696 129.572 92.891C123.472 92.4489 117.165 91.9886 110.943 91.8314C92.8949 91.3711 74.5404 91.1487 56.7919 90.9328L54.2723 90.9025C52.4146 90.8929 50.5764 91.277 48.8817 92.0305C48.2813 92.298 47.7672 92.7247 47.3964 93.263C47.0255 93.8012 46.8123 94.4309 46.7803 95.082C46.723 95.7749 46.8575 96.4704 47.1695 97.0937C47.4816 97.717 47.9593 98.2443 48.5514 98.6188C49.5622 99.255 50.6966 99.6746 51.8812 99.8512L53.2537 100.035C56.3334 100.505 59.4365 100.81 62.5494 100.949C68.0677 101.095 73.6774 101.152 79.1027 101.207C82.8566 101.245 86.7381 101.284 90.5539 101.352C91.7224 101.374 92.8891 101.384 94.055 101.384C106.905 101.384 119.625 100.166 130.532 98.9469L131.779 98.8096C133.552 98.6162 135.385 98.4177 137.178 98.1108C139.007 97.7982 139.806 96.6064 139.552 94.5657C139.536 94.4387 139.483 94.3194 139.4 94.2221C139.317 94.1241 139.207 94.0526 139.083 94.0158Z" fill="black"/>
<path d="M11.9765 85.4813C6.73292 85.0301 3.61803 88.3065 1.2633 91.5622C1.21043 91.6351 1.17306 91.7176 1.15357 91.8046C1.13408 91.8923 1.13284 91.9825 1.14991 92.0708C1.25413 92.62 1.35566 93.1286 1.45206 93.6101C1.64748 94.5724 1.811 95.4039 1.93932 96.2451C2.18168 98.1634 2.87965 99.9978 3.97615 101.598C5.07264 103.199 6.53653 104.52 8.24793 105.453C9.89741 106.313 11.735 106.76 13.5997 106.755C15.5278 106.744 17.4286 106.303 19.161 105.466C20.4417 104.915 21.586 104.094 22.5146 103.062C23.4432 102.03 24.134 100.811 24.5388 99.488C24.8584 98.1827 24.8871 96.8252 24.6231 95.5083C24.3591 94.1915 23.8088 92.9468 23.0101 91.862C21.8037 90.0178 20.1768 88.4805 18.2605 87.3725C16.3441 86.2645 14.1919 85.616 11.9765 85.4813Z" fill="black"/>
<path d="M12.9524 25.1569C13.2664 25.1801 13.5772 25.1915 13.8847 25.1911C16.3618 25.2519 18.7838 24.4624 20.7395 22.9567C22.6952 21.4509 24.064 19.3218 24.6134 16.9307C25.7859 11.865 24.3008 7.31042 20.3195 3.75946C16.5162 0.36769 11.9819 -0.288483 7.20469 1.8657C6.21441 2.33809 5.25471 2.87067 4.33091 3.46039C3.84434 3.75625 3.3303 4.06883 2.76751 4.39176C2.67487 4.44538 2.59661 4.52016 2.53915 4.60987C2.4817 4.69959 2.44682 4.80166 2.43738 4.90746C2.34488 6.02193 2.22307 7.099 2.10517 8.13548C1.80287 10.2781 1.66975 12.4407 1.70712 14.6038C1.96311 20.2594 6.69205 24.696 12.9524 25.1569ZM11.1546 7.63335C12.136 7.92683 13.041 8.42825 13.8067 9.1028C14.5724 9.77735 15.1805 10.6089 15.5886 11.5395C16.4048 13.2528 16.3188 14.5967 15.3183 15.7679C14.5255 16.6968 13.3798 16.934 11.7083 16.5131C10.9556 16.3604 10.2704 15.9771 9.74992 15.4177C9.22947 14.8582 8.90014 14.1509 8.80849 13.3959C8.43329 11.0619 9.17964 9.22288 11.1546 7.63335Z" fill="black"/>
<path d="M15.9701 45.5459H15.8912C7.93529 45.6239 3.22592 49.8498 2.96993 57.1381C2.91651 58.4108 3.12396 59.6811 3.5798 60.8724C4.03564 62.0637 4.73045 63.1513 5.62236 64.0698C6.7251 65.1577 8.03853 66.0143 9.48387 66.588C10.9292 67.1617 12.4767 67.4408 14.0336 67.4086H14.1058C15.6627 67.4337 17.2089 67.1495 18.6527 66.5726C20.0966 65.9957 21.4089 65.1384 22.5118 64.0504C23.4896 63.0731 24.2576 61.9103 24.7697 60.6318C25.2818 59.3533 25.5275 57.9855 25.4919 56.6107C25.3551 50.4898 21.0919 45.5459 15.9701 45.5459ZM14.8883 57.1909H11.8201C11.0515 55.3216 11.4366 54.0247 13.1393 52.7433C14.6244 53.569 15.455 54.717 14.8883 57.1909Z" fill="black"/>
</g>
<defs>
<clipPath id="clip0">
<rect width="142" height="107" fill="white" transform="translate(0.777344)"/>
</clipPath>
</defs>
</svg>

<svg xmlns="http://www.w3.org/2000/svg" width="143" height="107" fill="none" viewBox="0 0 143 107"><g fill="#000" clip-path="url(#a)"><path d="M46.309 14.643a9.8 9.8 0 0 0 3.916 1.559c2.452.31 4.92.475 7.392.493q5.997.117 11.993.262c10.183.234 20.687.475 31.066.475q1.145 0 2.288-.004c8.182-.03 16.489-.49 24.524-.937q3.732-.208 7.461-.403c1.09-.108 2.159-.36 3.181-.75.578-.189 1.172-.387 1.847-.568a.67.67 0 0 0 .442-.392.65.65 0 0 0-.044-.585c-1.721-2.87-3.867-3.148-5.591-3.372a20 20 0 0 1-.725-.104c-10.298-1.728-19.607-3.163-29.227-3.204-3.226-.013-6.45-.045-9.677-.076-4.917-.049-10.001-.094-15.003-.08-9.17.034-18.372.163-27.352.386-2.051.036-4.08.436-5.988 1.182a3.3 3.3 0 0 0-1.379 1.119 3.23 3.23 0 0 0-.586 1.665c-.084.635.007 1.28.264 1.868a3.54 3.54 0 0 0 1.198 1.466m95.952 43.121c-.217-.612-.422-1.19-.973-1.418a14.5 14.5 0 0 0-4.021-1.067c-2.823-.28-5.646-.587-8.468-.894-7.23-.788-14.704-1.602-22.088-1.91-13.777-.573-27.795-.826-41.35-1.07q-6.665-.12-13.328-.251a13.1 13.1 0 0 0-4.795.68c-.57.28-1.077.673-1.487 1.156a4.6 4.6 0 0 0-.895 1.648 3.27 3.27 0 0 0 .236 2.42 3.32 3.32 0 0 0 1.848 1.601 23.2 23.2 0 0 0 5.924 1.488c7.583.592 15.3 1.064 22.763 1.52l2.513.153c8.241.505 16.22.758 24.021.758 10.257 0 20.207-.438 30.028-1.314q.762-.066 1.531-.122c2.79-.21 5.675-.427 8.509-1.773a.66.66 0 0 0 .317-.877 8 8 0 0 1-.285-.728m-3.178 36.252c-.243-.072-.47-.154-.687-.23a5.4 5.4 0 0 0-1.486-.38 967 967 0 0 1-7.338-.515c-6.1-.442-12.407-.902-18.629-1.06-18.048-.46-36.403-.682-54.151-.898l-2.52-.03a13.1 13.1 0 0 0-5.39 1.127c-.6.268-1.115.695-1.486 1.233a3.5 3.5 0 0 0-.616 1.819 3.8 3.8 0 0 0 .39 2.012 3.84 3.84 0 0 0 1.381 1.525 8.6 8.6 0 0 0 3.33 1.232l1.373.184c3.08.47 6.183.775 9.295.914 5.519.146 11.128.203 16.554.258 3.754.038 7.635.077 11.45.145q1.754.032 3.502.032c12.85 0 25.57-1.218 36.477-2.437l1.247-.137c1.773-.194 3.606-.392 5.399-.7 1.829-.312 2.628-1.504 2.374-3.544a.66.66 0 0 0-.469-.55M11.977 85.481c-5.244-.45-8.359 2.826-10.714 6.081a.66.66 0 0 0-.113.509c.104.549.206 1.058.302 1.54.195.961.359 1.793.487 2.634a12.2 12.2 0 0 0 2.037 5.353 12.3 12.3 0 0 0 4.272 3.855c1.65.86 3.487 1.307 5.352 1.302a12.96 12.96 0 0 0 5.561-1.289 9.6 9.6 0 0 0 3.354-2.404 9.5 9.5 0 0 0 2.024-3.574 9.2 9.2 0 0 0 .084-3.98 9.2 9.2 0 0 0-1.613-3.646 14.1 14.1 0 0 0-4.75-4.49 14.3 14.3 0 0 0-6.284-1.89m.976-60.325q.471.035.933.034c2.477.06 4.899-.729 6.855-2.234a10.6 10.6 0 0 0 3.873-6.026c1.173-5.066-.312-9.62-4.293-13.172C16.516.368 11.982-.288 7.205 1.866q-1.486.71-2.874 1.594c-.487.296-1 .609-1.563.932a.67.67 0 0 0-.33.515 106 106 0 0 1-.333 3.228 41 41 0 0 0-.398 6.469c.256 5.655 4.985 10.092 11.245 10.553M11.155 7.633a7.1 7.1 0 0 1 2.652 1.47 7 7 0 0 1 1.782 2.437c.816 1.713.73 3.057-.27 4.228-.794.929-1.94 1.166-3.61.745a3.67 3.67 0 0 1-1.96-1.095 3.6 3.6 0 0 1-.94-2.022c-.376-2.334.37-4.173 2.346-5.763m4.815 37.913h-.079C7.935 45.624 3.226 49.85 2.97 57.138a9.35 9.35 0 0 0 .61 3.734 9.4 9.4 0 0 0 2.042 3.198 11.6 11.6 0 0 0 3.862 2.518 11.7 11.7 0 0 0 4.55.82h.072a11.7 11.7 0 0 0 4.547-.835 11.65 11.65 0 0 0 3.859-2.523 10.2 10.2 0 0 0 2.258-3.418c.512-1.279.758-2.646.722-4.021-.137-6.121-4.4-11.065-9.522-11.065M14.888 57.19H11.82c-.768-1.87-.383-3.166 1.32-4.448 1.484.826 2.315 1.974 1.748 4.448"/></g><defs><clipPath id="a"><path fill="#fff" d="M.777 0h142v107h-142z"/></clipPath></defs></svg>
